mimetypes/64/text-x-preview.svg

<?xml version="1.0" encoding="UTF-8" standalone="no"?>
<!-- Created with Inkscape (http://www.inkscape.org/) -->

<svg
   xmlns:dc="http://purl.org/dc/elements/1.1/"
   xmlns:cc="http://creativecommons.org/ns#"
   xmlns:rdf="http://www.w3.org/1999/02/22-rdf-syntax-ns#"
   xmlns:svg="http://www.w3.org/2000/svg"
   xmlns="http://www.w3.org/2000/svg"
   xmlns:xlink="http://www.w3.org/1999/xlink"
   xmlns:sodipodi="http://sodipodi.sourceforge.net/DTD/sodipodi-0.dtd"
   xmlns:inkscape="http://www.inkscape.org/namespaces/inkscape"
   version="1.1"
   width="64"
   height="64"
   id="svg13094"
   inkscape:version="0.92.2 5c3e80d, 2017-08-06"
   sodipodi:docname="gnome-fs-regular.svg">
  <sodipodi:namedview
     pagecolor="#f8f9fa"
     bordercolor="#666666"
     borderopacity="1"
     objecttolerance="10"
     gridtolerance="10"
     guidetolerance="10"
     inkscape:pageopacity="1"
     inkscape:pageshadow="2"
     inkscape:window-width="1920"
     inkscape:window-height="1022"
     id="namedview81"
     showgrid="false"
     inkscape:zoom="5.6568542"
     inkscape:cx="72.861495"
     inkscape:cy="37.886224"
     inkscape:window-x="-5"
     inkscape:window-y="23"
     inkscape:window-maximized="1"
     inkscape:current-layer="svg13094"
     inkscape:snap-bbox="true"
     inkscape:bbox-paths="true"
     inkscape:bbox-nodes="true"
     inkscape:snap-bbox-edge-midpoints="true"
     inkscape:snap-bbox-midpoints="true"
     inkscape:object-paths="true"
     inkscape:snap-intersection-paths="true"
     inkscape:object-nodes="true"
     inkscape:snap-smooth-nodes="true"
     inkscape:snap-midpoints="true"
     inkscape:snap-object-midpoints="true"
     inkscape:snap-center="true"
     showborder="false">
    <inkscape:grid
       type="xygrid"
       id="grid3783"
       empspacing="5"
       visible="true"
       enabled="true"
       snapvisiblegridlinesonly="true" />
  </sodipodi:namedview>
  <defs
     id="defs11">
    <linearGradient
       x1="48.917568"
       y1="46.213669"
       x2="32.669781"
       y2="24"
       id="linearGradient4259-6"
       gradientUnits="userSpaceOnUse">
      <stop
         id="stop3988-6"
         style="stop-color:#ffffff;stop-opacity:0.52975047"
         offset="0" />
      <stop
         id="stop3990-9"
         style="stop-color:#ffffff;stop-opacity:0"
         offset="1" />
    </linearGradient>
    <radialGradient
       inkscape:collect="always"
       xlink:href="#linearGradient832"
       id="radialGradient834"
       cx="46.869087"
       cy="36.887913"
       fx="46.869087"
       fy="36.887913"
       r="14.161133"
       gradientTransform="matrix(1.4400868,0,0,2.1184746,-19.190752,-35.791186)"
       gradientUnits="userSpaceOnUse" />
    <linearGradient
       inkscape:collect="always"
       id="linearGradient832">
      <stop
         style="stop-color:#222e33;stop-opacity:0.28509405"
         offset="0"
         id="stop828" />
      <stop
         style="stop-color:#222e33;stop-opacity:0.12156863"
         offset="1"
         id="stop830" />
    </linearGradient>
    <linearGradient
       inkscape:collect="always"
       xlink:href="#linearGradient885"
       id="linearGradient881"
       gradientUnits="userSpaceOnUse"
       x1="37"
       y1="36"
       x2="48.959652"
       y2="46.163666" />
    <linearGradient
       inkscape:collect="always"
       id="linearGradient885">
      <stop
         style="stop-color:#ffffff;stop-opacity:0.00655499"
         offset="0"
         id="stop881" />
      <stop
         id="stop889"
         offset="0.80048281"
         style="stop-color:#fefefe;stop-opacity:0.45447925" />
      <stop
         style="stop-color:#feffff;stop-opacity:1"
         offset="1"
         id="stop883" />
    </linearGradient>
    <radialGradient
       inkscape:collect="always"
       xlink:href="#linearGradient909"
       id="radialGradient911"
       cx="20.339514"
       cy="28.540977"
       fx="20.339514"
       fy="28.540977"
       r="30"
       gradientTransform="matrix(1.1807908,0,0,1.2201507,-5.4237236,-7.2649718)"
       gradientUnits="userSpaceOnUse" />
    <linearGradient
       inkscape:collect="always"
       id="linearGradient909">
      <stop
         style="stop-color:#1b4757;stop-opacity:0.06801736"
         offset="0"
         id="stop905" />
      <stop
         style="stop-color:#0a4f68;stop-opacity:0.01013025"
         offset="1"
         id="stop907" />
    </linearGradient>
    <linearGradient
       gradientTransform="translate(-34,-33)"
       inkscape:collect="always"
       xlink:href="#linearGradient878"
       id="linearGradient880"
       x1="82.743576"
       y1="79.42112"
       x2="71"
       y2="69"
       gradientUnits="userSpaceOnUse" />
    <linearGradient
       inkscape:collect="always"
       id="linearGradient878">
      <stop
         style="stop-color:#c1cad0;stop-opacity:1"
         offset="0"
         id="stop874" />
      <stop
         id="stop882"
         offset="0.25230676"
         style="stop-color:#bcc7cc;stop-opacity:1" />
      <stop
         style="stop-color:#d1dbe2;stop-opacity:1"
         offset="1"
         id="stop876" />
    </linearGradient>
  </defs>
  <metadata
     id="metadata13099">
    <rdf:RDF>
      <cc:Work
         rdf:about="">
        <dc:format>image/svg+xml</dc:format>
        <dc:type
           rdf:resource="http://purl.org/dc/dcmitype/StillImage" />
        <dc:title />
      </cc:Work>
    </rdf:RDF>
  </metadata>
  <path
     inkscape:connector-curvature="0"
     d="M 4,0 H 64 V 62 H 4 Z"
     id="path3960"
     style="fill:#c8d4dc;fill-opacity:1;fill-rule:nonzero" />
  <path
     inkscape:connector-curvature="0"
     style="fill:url(#radialGradient834);fill-opacity:1;fill-rule:nonzero"
     d="M 60,2 V 33 L 35.677734,62 H 64 V 37 6 Z"
     id="path3900" />
  <path
     inkscape:connector-curvature="0"
     d="M 0,2 H 60 V 33 L 34,64 H 0 Z"
     id="path4257"
     style="fill:url(#linearGradient4259-6);fill-rule:nonzero" />
  <path
     style="color:#000000;display:inline;overflow:visible;visibility:visible;fill:#edf0f2;fill-opacity:1;fill-rule:nonzero;stroke:none;stroke-width:1;marker:none;enable-background:accumulate"
     id="path891"
     d="M 0,2 H 60 V 33 L 34,64 H 0 Z"
     inkscape:connector-curvature="0" />
  <path
     inkscape:connector-curvature="0"
     d="M 0,2 H 60 V 33 L 34,64 H 0 Z"
     id="path879"
     style="color:#000000;display:inline;overflow:visible;visibility:visible;fill:url(#linearGradient881);fill-opacity:1;fill-rule:nonzero;stroke:none;stroke-width:1;marker:none;enable-background:accumulate" />
  <path
     inkscape:connector-curvature="0"
     d="M 0,2 H 60 V 33 L 34,64 H 0 Z"
     id="path3982"
     style="color:#000000;display:inline;overflow:visible;visibility:visible;fill:url(#radialGradient911);fill-opacity:1;fill-rule:nonzero;stroke:none;stroke-width:1;marker:none;enable-background:accumulate" />
  <path
     inkscape:connector-curvature="0"
     d="M 34,64 60,33 c -2.328567,2.776369 -4.36141,3 -11,3 H 37 v 15 c 0,6.644068 0.04437,9.370179 -3,13 z"
     id="path4278"
     style="opacity:1;vector-effect:none;fill:url(#linearGradient880);fill-opacity:1;fill-rule:nonzero;stroke-width:1;stroke-linecap:butt;stroke-linejoin:miter;stroke-miterlimit:4;stroke-dasharray:none;stroke-dashoffset:0;stroke-opacity:1" />
</svg>

<?xml version="1.0" encoding="UTF-8"?>
<svg width="64" height="64" version="1.1" xmlns="http://www.w3.org/2000/svg" xmlns:xlink="http://www.w3.org/1999/xlink">
  <defs>
    <radialGradient id="a" cx="46.306" cy="38.848" r="14.161" gradientTransform="matrix(2.3177 0 0 3.1347 -60.325 -73.277)" gradientUnits="userSpaceOnUse">
      <stop style="stop-color:#671043;stop-opacity:.21335" offset="0"/>
      <stop style="stop-color:#472253;stop-opacity:.14556" offset="1"/>
    </radialGradient>
    <linearGradient id="c" x1="48.918" x2="35.678" y1="46.214" y2="32.974" gradientUnits="userSpaceOnUse">
      <stop style="stop-color:#fff;stop-opacity:.52975" offset="0"/>
      <stop style="stop-color:#fff;stop-opacity:0" offset="1"/>
    </linearGradient>
    <linearGradient id="d" x1="82.744" x2="71" y1="79.421" y2="69" gradientTransform="translate(-34,-33)" gradientUnits="userSpaceOnUse">
      <stop style="stop-color:#d4c9dd" offset="0"/>
      <stop style="stop-color:#d5d3db" offset=".25231"/>
      <stop style="stop-color:#d4dee4" offset="1"/>
    </linearGradient>
    <radialGradient id="b" cx="8.5693" cy="26.419" r="30" gradientTransform="matrix(2.4121 0 0 2.4925 -12.294 -54.03)" gradientUnits="userSpaceOnUse">
      <stop style="stop-color:#6040ff;stop-opacity:.054902" offset="0"/>
      <stop style="stop-color:#2a82ff;stop-opacity:0" offset="1"/>
    </radialGradient>
  </defs>
  <metadata/>
  <path d="m4 0h60v62h-60z" style="fill:#d5dee4"/>
  <path d="m60 2v31l-24.322 29h28.322v-56z" style="fill:url(#a)"/>
  <path d="m0 2h60v31l-26 31h-34z" style="color:#000;fill:#edf0f2"/>
  <path d="m0 2h60v31l-26 31h-34z" style="color:#000;fill:url(#b)"/>
  <path d="m0 2h60v31l-26 31h-34z" style="fill:url(#c)"/>
  <path d="m34 64 26-31c-2.3286 2.7764-4.3614 3-11 3h-12v15c0 6.6441 0.04437 9.3702-3 13z" style="fill:url(#d)"/>
</svg>
